src/assets/duotone/Airpods.svg

<svg width="24" height="24" viewBox="0 0 24 24"  xmlns="http://www.w3.org/2000/svg">
<path opacity="0.4" d="M10.5 4.83002V17.11C10.5 17.93 9.98 18.62 9.25 18.88C9.05 18.96 8.82999 19 8.60999 19C8.29999 19 8 18.92 7.75 18.78C7.14 18.47 6.72 17.84 6.72 17.11V9.56H5.78C3.7 9.56 2 7.86003 2 5.78003C2 4.74003 2.41999 3.79999 3.10999 3.10999C3.79999 2.41999 4.74 2 5.78 2H7.67001C9.22001 2 10.5 3.28002 10.5 4.83002Z" />
<path d="M5.77985 7.47003C4.84985 7.47003 4.08984 6.71008 4.08984 5.77008C4.08984 4.83008 4.84985 4.08008 5.77985 4.08008C6.18985 4.08008 6.52985 4.42008 6.52985 4.83008C6.52985 5.24008 6.18985 5.58008 5.77985 5.58008C5.66985 5.58008 5.58984 5.67008 5.58984 5.77008C5.58984 5.87008 5.67985 5.97003 5.77985 5.97003C6.18985 5.97003 6.52985 6.31003 6.52985 6.72003C6.52985 7.13003 6.18985 7.47003 5.77985 7.47003Z" />
<path opacity="0.4" d="M22 5.78003C22 7.86003 20.3 9.56 18.22 9.56H17.28V17.11C17.28 17.84 16.86 18.47 16.25 18.78C16 18.92 15.7 19 15.39 19C15.17 19 14.95 18.96 14.75 18.88C14.02 18.62 13.5 17.93 13.5 17.11V4.83002C13.5 3.28002 14.77 2 16.33 2H18.22C19.26 2 20.2 2.41999 20.89 3.10999C21.58 3.79999 22 4.74003 22 5.78003Z" />
<path d="M18.2202 7.47003C17.8102 7.47003 17.4702 7.13003 17.4702 6.72003C17.4702 6.31003 17.8102 5.97003 18.2202 5.97003C18.3302 5.97003 18.4102 5.88008 18.4102 5.77008C18.4102 5.66008 18.3202 5.58008 18.2202 5.58008C17.8102 5.58008 17.4702 5.24008 17.4702 4.83008C17.4702 4.42008 17.8102 4.08008 18.2202 4.08008C19.1502 4.08008 19.9102 4.84008 19.9102 5.77008C19.9102 6.70008 19.1602 7.47003 18.2202 7.47003Z" />
<path d="M9.25 18.8802V22.0002C9.25 22.4102 8.91 22.7502 8.5 22.7502C8.09 22.7502 7.75 22.4102 7.75 22.0002V18.7803C8 18.9203 8.29999 19.0002 8.60999 19.0002C8.82999 19.0002 9.05 18.9602 9.25 18.8802Z" />
<path d="M16.25 18.7803V22.0002C16.25 22.4102 15.91 22.7502 15.5 22.7502C15.09 22.7502 14.75 22.4102 14.75 22.0002V18.8802C14.95 18.9602 15.17 19.0002 15.39 19.0002C15.7 19.0002 16 18.9203 16.25 18.7803Z" />
</svg>

<?xml version="1.0" encoding="UTF-8"?>
<svg width="24" height="24" viewBox="0 0 24 24" xmlns="http://www.w3.org/2000/svg">
 <path d="m10.5 4.83v12.28c0 0.82-0.52 1.51-1.25 1.77-0.2 0.08-0.42001 0.12-0.64001 0.12-0.31 0-0.60999-0.08-0.85999-0.22-0.61-0.31-1.03-0.94-1.03-1.67v-7.55h-0.94c-2.08 0-3.78-1.7-3.78-3.78 0-1.04 0.41999-1.98 1.11-2.67s1.63-1.11 2.67-1.11h1.89c1.55 0 2.83 1.28 2.83 2.83z" opacity=".4"/>
 <path d="m5.7798 7.47c-0.93 0-1.69-0.75995-1.69-1.7s0.76001-1.69 1.69-1.69c0.41 0 0.75 0.34 0.75 0.75s-0.34 0.75-0.75 0.75c-0.11 0-0.19001 0.09-0.19001 0.19s0.09001 0.19995 0.19001 0.19995c0.41 0 0.75 0.34 0.75 0.75s-0.34 0.75-0.75 0.75z"/>
 <path d="m22 5.78c0 2.08-1.7 3.78-3.78 3.78h-0.94v7.55c0 0.73-0.42 1.36-1.03 1.67-0.25 0.14-0.55 0.22-0.86 0.22-0.22 0-0.44-0.04-0.64-0.12-0.73-0.26-1.25-0.95-1.25-1.77v-12.28c0-1.55 1.27-2.83 2.83-2.83h1.89c1.04 0 1.98 0.41999 2.67 1.11s1.11 1.63 1.11 2.67z" opacity=".4"/>
 <path d="m18.22 7.47c-0.41 0-0.75-0.34-0.75-0.75s0.34-0.75 0.75-0.75c0.11 0 0.19-0.08995 0.19-0.19995s-0.09-0.19-0.19-0.19c-0.41 0-0.75-0.34-0.75-0.75s0.34-0.75 0.75-0.75c0.93 0 1.69 0.76 1.69 1.69s-0.75 1.7-1.69 1.7z"/>
 <path d="m9.25 18.88v3.12c0 0.41-0.34 0.75-0.75 0.75s-0.75-0.34-0.75-0.75v-3.2199c0.25 0.14 0.54999 0.2199 0.85999 0.2199 0.22 0 0.44001-0.04 0.64001-0.12z"/>
 <path d="m16.25 18.78v3.2199c0 0.41-0.34 0.75-0.75 0.75s-0.75-0.34-0.75-0.75v-3.12c0.2 0.08 0.42 0.12 0.64 0.12 0.31 0 0.61-0.0799 0.86-0.2199z"/>
</svg>
